X:1
T:THE CASCADES
T:THE CASCADES
T:A RAG
T:Scott JOPLIN
T:Geoffrey MOURET
T:Geoffrey MOURET
T:Geoffrey MOURET
T:Geoffrey MOURET
T:Geoffrey MOURET
T:Geoffrey MOURET
T:Geoffrey MOURET
C:Scott JOPLIN
Z:Geoffrey MOURET
%%score 1 2 { 3 | ( 4 5 ) }
L:1/8
Q:1/4=85
M:2/4
K:C
V:1 treble nm="Flûte 1" snm="Fl."
V:2 treble nm="Flûte 2" snm="Fl."
V:3 treble nm="Piano" snm="Pia."
V:4 bass 
V:5 bass 
V:1
 z4 | z4 | z4 | z (^F/G/ A/B/c/d/) |:!mf!"^A" (e/^d/e/f/ g/a/c'/a/) | (b/c'/d'/f/ a/g/d/^d/) | %6
 (e/^d/e/f/ g/a/c'/a/) | (b/c'/d'/f/ a/g/d/e/) | z !>!f .e z | z !>!f .e z | z2 z/ (C/^D/^F/ | %11
 A/c/^d/^f/ a/c'/^d'/^f'/) | _a'^f'/f'/- f'/f'/f' | g'2 (g'/e'/c'/g/) | a2 .d'/!>!d'g/ | c' z z2 | %16
 c._e .c._A | G2 E2 | D2 .F/!>!FF/ |1 E (^F/G/ A/B/c/d/) :|2 E g/g/ gg |: %21
!mf!"^B" (g'/f'/d'/b/ g/f/d/B/) |!mp! c!>!e/e/- e/e/e | B!>!f/f/- f/f/f | %24
 c!>!e/e/- e/!mf!g/c'/e'/ | (g'/f'/d'/b/ g/f/d/B/) | c!>!e/e/- e/G/e | B!>!B/B/- B/B/c | %28
 G z z/ g/b/d'/ |!mf! (g'/f'/d'/b/ g/f/d/B/) |!mp! c!>!e/e/- e/e/e | B!>!f/f/- f/f/f | %32
!mp! c!>!e/e/- e/e/!^!d |!p! c/!<(!e/g/c'/ c/e/g/c'/ | c/f/c'/f/ c/c'^f/!<)! |!mf! g/G/e/d/ cd |1 %36
 c g/g/ gg :|2 c z z2 ||!f! Te'4- | e'3 e' | _e'2 =e'2 | f'2 z2 |:!mf!"^C" f2- f/d/_e/=e/ | %43
 f/d/_e/d/- d/ z/ z | z/ g/_b/g/ c'/bf/- | f2- f/a/c'/f'/ | f2- f/_B/c/^c/ | d/_B/c/B/- B/G/B | %48
 A/f/c/d/- d/_B/G | F z z/ a/c'/f'/ | f2- f/d/_e/=e/ | f/d/_e/d/- d/ z/ z | z/ g/_b/g/ c'/bf/- | %53
 f/d/f/f/ _b/d'/f'/_a'/ | z _b/g/ c'/bf/- | f/d/f/g/- g/d/=B/G/ | c/G/_B A/f/_e/c/ |1 _B2 z2 :|2 %58
 _B2 _b z |:!p!"^D"!<(! _B/B_A/ G/^F/G/B/!<)! | _e z z2 |!p! _B/B_A/ G/^F/G/B/ | _e z z2 | %63
!mp! _a/ag/ (f/e/f/^f/ |!<(! g/)_a/_b/c'/-!<)!!<(! c'/d'/_e'!<)! | %65
!<(! d'/_e'/=e'/f'/- f'/f/c'!<)! |!f! _b2-!>(! b _B!>)! |!p! _B/!<(!B_A/ G/^F/G/B/!<)! | %68
!mf! _e z z2 |!<(! g/gg/ (_a/g/d/f/ | _e/)f/g/c'/- c'/g/c'!<)! |!f! z/ _a/g/f/ a/_e'a/ | %72
 g/_e/g ^f2 | g/_B/g/f/ _ef |1 _e _B/B/ BB :|2 _e2 !^!_e' z |] %76
V:2
!mf! .g!<(! !>!g2 a | .b !>!b2 f' | .e'2 .d'2!<)! |!f! !^!g' z z2 |:!mf! z !>!g2 ^f | f2 d!>!^d | %6
 z !>!g2 ^f | f2 d!>!^d | (f/d/B/^G/ A) z | (f/d/B/^G/ A) z | z4 | (C/^D/^F/A/ c/^d/^f/a/) | %12
 c'._e' .c'._a | g2 e2 | d2 .f/!>!ff/ | e (c/d/ e/f/^f/g/) | _a^f/f/- f/f/f | g2 (g/e/c/G/) | %18
 A2 .d/!>!dG/ |1 c z z2 :|2 c z z2 |:!mf! z !>!B2 d | e!>!a/g/- g/a/g | f!>!a/g/- g/a/g | %24
 e!>!a/g/- g/ z/ z | z !>!B2 d | e!>!a/g/- g/g/^a | e!>!d/B/- B/G/A | B/G/B/d/ g/ z/ z | z4 | %30
 e!>!a/g/- g/a/g | f!>!a/g/- g/a/g | e!>!a/g/- g/a/!^!g |!p!!<(! c' z c' z | c' z c' z | %35
!mf! g/!<)!G/e/d/ ^F=F |1 E z z2 :|2 E z z2 || z4 | z4 | z4 | z4 |:!mf! F2- F/D/_E/=E/ | %43
 F/_B/A/B/- B/d/f/_a/ | z/ _e/_B/e/ c/BB/- | B2- B/A/c/f/ | d2- d/_B/c/^c/ | d/_B/_E/D/- D/G/B | %48
 F/F/A/_B/- B/B/E | Fc/f/- f/ z/ z | d2- d/D/_E/=E/ | F/_B/A/B/- B/d/f/_a/ | z/ _e/_B/e/ c/Bd/- | %53
 d/d/f/f/ _b/ z/ z | z/ _e/_B/e/ c/Bd/- | d/_B/d/=B/- B/d/=B/G/ | E_B AF |1 _B z z2 :|2 _B2 d z |: %59
!p! G/!<(!GF/ _EE/G/!<)! | _B z z2 |!p! G/GF/ _EE/G/ | _B z z2 |!mp! d/dd/ d2 | %64
!<(! _e/_A/_B/c/-!<)!!<(! c/d/e!<)! |!<(! d/_e/=e/f/- f/f/_e!<)! |!f! d2- d _A | %67
!p!!<(! G/GF/ _EE/G/!<)! |!mf! _B z z2 |!<(! B/BB/ B2 | c/f/g/c'/- c'/g/c'!<)! | %71
!f! z/ _a/g/f/ a/_e'a/ | g/_e/g e2 | _e/_B/g/f/ A_A |1 G _B/B/ BB :|2 G2 !^!g z |] %76
V:3
!mf! .G !>!G2 A | .B !>!B2 f | .e2 .d2 | !^![GBg] z z2 |: z !>![ceg] e_e | z [GBf] z !>![GB^d] | %6
 z [ceg] e_e | z [GBf] z [GBf] | (f/d/B/^G/ A) z | (f/d/B/^G/ A) z | %10
"_r.h."[I:staff +1] (A,,/C,/^D,/^F,/ A,/C/^D/^F/ |[I:staff -1] A/c/^d/^f/ a/c'/^d'/^f'/) | %12
 [c'_e'][c_e]/[ce]/- [ce]/[ce]/[ce] | [c'=e']2 z2 | [c^f]2 z2 | e z z2 | %16
 [c_e_a][ce]/[ce]/- [ce]/[ce]/[ce] | [c=eg]2 z2 | [C^FA]2 z2 |1 [Ec] z z2 :|2 [Ec] z z2 |: %21
 z [GBf] z [GBf] | z [Gce] z [Gce] | z [GBf] z [GBf] | z [Gce] z [Gce] | z [GBf] z [GBf] | %26
 z [Gce] z2 | z [DG] z [D^F] | [DG] z [Bdg] z | z [GBf] z [GBf] | z [Gce] z [Gce] | %31
 z [GBf] z [GBf] | z [Gce] [Gce]!^!G |!p!!<(! c2 _B2 | A2 _A2!<)! |!mf! z [Gce] z2 |1 z4 :|2 %37
 z2 [cec'] z ||"^r.h." [Bdf] [Bdf]2 [Bdf] | [_Bdf] [Bdf]2 [Bdf] | [_B_e]2 [_Bc=e]2 | %41
 [Acf] z !^![FA_ef]2 |:!mf! [F_Bdf]2- [FBdf]/ z/ z | dc _B[FBd] | z [G_B_e] _E^C | z4 | %46
 [F_Bdf]2- [FBdf]/ z/ z | z4 | z [Ac] z [_Bc] | [FAc]A c_e | [F_Bdf]2- [FBdf]/ z/ z | dc _B[FBd] | %52
 z [G_B_e] _EG | _B_A GF | z [G_B_e] _E^C | z2 z [GBdf] | z4 |1 z4 :|2 z2 [_Bd_b] z |: %59
!p!!<(! z [G_B_e] z [GB]!<)! |!mf! z [_eg_b]/[eg]/- [eg]/[egc']/[egb] | %61
!p!!<(! z [G_B_e] z [GB]!<)! |!mf! z [_eg_b]/[eg]/- [eg]/[egc']/[^cgb] | z [_A_Bd] z [ABd] | %64
 z [G_B_e] z2 | z [F_Bd] z [FA] |!f! _B!>(! z z2!>)! |!p! z [G_B_e] z [GB] | %68
!mf! z [_eg_b]/[eg]/- [eg]/[egc']/[egb] | z [GBf] z [GBf] | z [Gc_e] z [Gce] | z [_Acf] z2 | %72
 z [G_B_e] z2 | z [G_B_e] z2 |1 _e z [_A,_B,D]2 :|2 z4 |] %76
V:4
 .[G,,G,] !>![G,,G,]2 [A,,A,] | .[B,,B,] !>![B,,B,]2 [F,F] | .[E,E]2 .[D,D]2 | !^![G,,G,] z z2 |: %4
 [C,C]!>![G,CE] [E,E][_E,_E] | [D,D][G,B,F] [G,,G,][G,B,F] | [C,C][G,CE] [E,E][_E,_E] | %7
 [D,D][G,B,F] [G,,G,][G,B,F] | (^G,/B,/D/F/ [CE]) z | (^G,/B,/D/F/ [CE]) z | %10
"_l.h." (C,,/^D,,/^F,,/A,,/ C,/^D,/^F,/A,/ |[I:staff -1] C/^D/^F/A/ c/^d/^f/a/) | _a_EC_A, | %13
 G[c=e] E[Gce] | (DA) [GB]2 | [CGc][I:staff +1] z z2 | _A_EC_A, | G,[C=E] E,[G,CE] | %18
 (D,A,) [G,B,]2 |1 [C,G,C] z z2 :|2 [C,G,C] z z [^C,^C] |: %21
!ped! [D,D][G,B,F] [G,,G,][G,B,F]!ped-up! |!ped! [C,C][G,CE] [G,,G,][G,CE]!ped-up! | %23
!ped! [D,D][G,B,F] [G,,G,][G,B,F]!ped-up! |!ped! [C,C][G,CE] [G,,G,][G,CE]!ped-up! | %25
!ped! [D,D][G,B,F] [G,,G,][G,B,F]!ped-up! |!ped! [C,C][G,CE] [E,,E,][^C,,^C,]!ped-up! | %27
!ped! [D,,D,][D,G,] [D,,D,]!ped-up![D,^F,] | [G,,D,G,] z [G,B,D] z | %29
!ped! [D,D][G,B,F] [G,,G,]!ped-up![G,B,F] |!ped! [C,C][G,CE] [G,,G,][G,CE]!ped-up! | %31
!ped! [D,D][G,B,F] [G,,G,][G,B,F]!ped-up! |!ped! [C,C][G,CE] [G,CE]!^![G,,G,]!ped-up! | %33
!p!!ped!!<(! C,[G,CE] _B,,!ped-up![G,CE] |!ped! A,,[A,CF]!ped-up!!ped! _A,,[_A,C^D]!ped-up!!<)! | %35
!mf!!ped! [G,,G,][G,CE] [A,,A,][G,,G,]!ped-up! |1 [C,C] z z2 :|2 [C,C][G,,G,] [C,,C,] z || %38
"^l.h."[I:staff -1] G G2 G | _A A2 A | G2 _G2 | F[I:staff +1] z !^![F,,F,]2 |: %42
!ped! [D,D]/[_B,,_B,]/[A,,A,]/[G,,G,]/!ped-up! [F,,F,]/[B,,B,]/[C,C]/[^C,^C]/ | %43
!ped! [D,D][C,C]!ped-up!!ped! [_B,,_B,][F,B,D]!ped-up! | %44
!ped! [_E,,_E,][G,_B,_E] [E,,E,][^C,,^C,]!ped-up! | %45
!ped! [D,,D,][F,,F,]/[_B,,_B,]/ [C,C][_E,_E]!ped-up! | %46
!ped! [D,D]/[_B,,_B,]/[A,,A,]/[G,,G,]/ [F,,F,]/[D,,D,]/!ped-up![_E,,_E,]/[=E,,=E,]/ | %47
 [F,,F,][^F,,^F,]/[G,,G,]/- [G,,G,]/[_B,,_B,]/[D,D]/[_D,_D]/ | %48
!ped! [C,C][A,C]!ped-up!!ped! C,[_B,C]!ped-up! |!ped! [F,A,C][A,,A,] [C,C][_E,_E]!ped-up! | %50
!ped! [D,D]/[_B,,_B,]/[A,,A,]/[G,,G,]/ [F,,F,]/[B,,B,]/[C,C]/[^C,^C]/!ped-up! | %51
!ped! [D,D][C,C]!ped-up!!ped! [_B,,_B,][F,B,D]!ped-up! | %52
!ped! [_E,,_E,][G,_B,_E] [E,,E,][G,,G,]!ped-up! |!ped! [_B,,_B,][_A,,_A,] [G,,G,][F,,F,]!ped-up! | %54
!ped! [_E,,_E,][G,_B,_E] [E,,E,][^C,,^C,]!ped-up! | %55
!ped! [D,,D,][_A,,,_A,,]!ped-up!!ped! [G,,,G,,][G,B,DF]!ped-up! | [C,G,_B,][G,CE] [F,C_E][F,A,E] |1 %57
 _B,[F,,F,]/[G,,G,]/ [A,,A,]/[_B,,B,]/[C,C]/[^C,^C]/ :|2 _B,[F,,F,] [_B,,,_B,,] z |: %59
!ped! _E,[G,_B,_E] _B,,[G,B,]!ped-up! |!ped! _E,[G,_B,_E] _B,,[G,B,E]!ped-up! | %61
!ped! _E,[G,_B,_E] _B,,[G,B,]!ped-up! |!ped! _E,[G,_B,_E] [_E,,E,][=E,,=E,]!ped-up! | %63
!mp!!ped! [F,,F,][_A,_B,D] [_B,,,_B,,]!ped-up![A,B,D] | %64
!ped! [_E,,_E,][G,_B,_E] [G,,G,][_G,,_G,]!ped-up! |!ped! [F,,F,][F,_B,D] [F,,F,][F,A,]!ped-up! | %66
!ped! [_B,,_B,]F,D,B,,!ped-up! |!p!!ped! _E,[G,_B,_E] _B,,[G,B,]!ped-up! | %68
!ped! _E,[G,_B,_E] _B,,[G,B,E]!ped-up! |!ped!!<(! D,[G,B,F] G,,[G,B,F]!ped-up! | %70
!ped! C,[G,C_E] C,[G,CE]!ped-up!!<)! |!f!!ped! [F,,F,][_A,CF] [C,C][_C,_C]!ped-up! | %72
 [_B,,_B,][G,B,_E] [A,,A,]2 | [_B,,_B,][G,B,_E] [C,C][B,,B,] |1 [_E,_E] z (F,_B,,) :|2 %75
 [_E,_E][_B,,_B,] !^![_E,,E,] z |] %76
V:5
 x4 | x4 | x4 | x4 |: x4 | x4 | x4 | x4 | x4 | x4 | x4 | x4 | x4 |[I:staff -1] G2 E2 | x4 | x4 | %16
 x4 |[I:staff +1] G,2 E,2 | x4 |1 x z z2 :|2 x4 |: x4 | x4 | x4 | x4 | x4 | x4 | x4 | x4 | x4 | %30
 x4 | x4 | x4 | [C,C]2 [_B,,_B,]2 | [A,,A,]2 [_A,,_A,]2 | x4 |1 x z z2 :|2 x4 || x4 | x4 | x4 | %41
 x4 |: x4 | x4 | x4 | x4 | x4 | x4 | x4 | x4 | x4 | x4 | x4 | x4 | x4 | x4 | x4 |1 D2 x2 :|2 %58
 D2 x2 |: x4 | x4 | x4 | x4 | x4 | x4 | x4 | x4 | x4 | x4 | x4 | x4 | x4 | x4 | x4 |1 x4 :|2 x4 |] %76

